X:7131
T:The New-Mown Meadows
O:england
B:Joyce, P. W.; "Old Irish Folk Music and Songs"
R:reel
H:Written from memory.
L:1/8
M:C
K:G
A2 D2 EDEG|AcBG AE E2|A2 D2 EDEF|G2 AG EG G2|
A2 D2 EDEG|AcBG AE E2|c2 cA B2 BA|G2 AG EG G2||
Bd d2 eddB|AcBG AE E2|Bd d2 eddB|G2 AG EG G2|
BddB ecdB|AcBG AE E2|c2 cA B2 BA|G2 AG EG G2||"When turning on 1st part"\
G2 AG EcBc||


